public/piece/Intl_Colored_2D/1RY.svg

<svg xmlns="http://www.w3.org/2000/svg" width="52.157" height="52.157"><g opacity=".99"><path d="M26.078 48.76l13.673-4.484 6.418-40.907H5.988l6.419 40.907z" opacity=".99" fill="#fdd3e3" fill-opacity=".992" stroke="#000" stroke-width="1.048"/><g stroke-width=".578" fill="none" stroke="#fff"><path d="M25.268 36.971c.368-1.554-.946-3.209-2.92-3.732 1.42-.95 1.892-1.896 1.892-1.896-.636-.02-2.264-.401-2.844-1.37.27-.088 1.662-.552 1.87-1.41M22.065 28.406c-5.457 1.644-8.878-.825-10.554-4.074m8.739 2.408c-5.88-.206-4.28-6.974-2.814-10.628m-.37 12.664c-2.435-1.324-4.47-3.153-3.592-8.665m7.258-3.444c1.286-.583 1.948-5.511 1.036-5.221M16.88 25.258c-2.055-8.02 11.054-10.188 9.147-18.145M20.065 25.85c-6.067-6.665 11.443-9.323 9.776-18.848m2.148 25.107c-1.456 1.965-2.746 4.13-5.147 4.962m2.592-7.11c-1.84.223-3.679.341-5.518.074m5.888 1.445c-1.013 1.266-3.027 1.632-5 2.036"/></g><path d="M38.247 25.48c-4.912-.165-12.075-6.416-13.775-3.11" fill="none" stroke="red" stroke-width=".578"/><path d="M27.059 27.745c3.646-.937 4.638-7.105 7.698-9.636.532.266.598.861.576 2.095l2.043 1.1-3.3.419 2.095 1.152-2.775.47 1.152 1.624-2.252-.366.105 2.356-.995.524v1.571l.523.786.838-.105-.052-.733 1.204-.105.105-.89.943.314.733-.21-.157-1.78 1.518.052.053-2.88c.342.28.83.559 1.728.838.278-1.641.206-3.125.21-4.766l2.46 3.457c-.194.474-.726.432-1.099 1.518.033.759.062 1.515.367 2.41-1.849.912-3.454 2.555-5.028 4.294l-.052 3.613c-.659 1.804-1.116 2.78-1.683 3.709-.042-1.342-.114-2.453-.456-3.21-1.044 1.11-.02 4.54-3.726 6.466.93-2.078 2.665-4.256 1.518-6.075-4.125 5.114-8.418 9.025-13.51 7.227 5.025-.412 8.741-3.319 7.873-6.461-3.158 3.528-7.03 2.71-8.272 2.105 3.919-.405 5.521-1.907 4.692-4.128-4.437 1.275-7.834 1.081-9.897-.995 2.485.272 6.1 1.043 6.196-.412-17.394-7.675 2.55-19.04 2.863-20.535 1.085-2.682.47-3.7.42-5.499 5.69-2.75 9.614-2.285 12.568-.052.57 8.029-6.557 10.848-10.123 12.527-3.907 1.839-6.314 8.962-.584 9.042.486-1.026.764-2.575.495-4.55 1.196 3.518 3.222 4.545 5.813 3.876" fill="red" stroke="red" stroke-width=".539"/><g stroke-width=".778" fill="none" stroke="#fdd3e3" stroke-opacity=".992"><path d="M25.268 36.971c.368-1.554-.946-3.209-2.92-3.732 1.42-.95 1.892-1.896 1.892-1.896-.636-.02-2.264-.401-2.844-1.37.27-.088 1.662-.552 1.87-1.41M22.065 28.406c-5.457 1.644-8.878-.825-10.554-4.074m8.739 2.408c-5.88-.206-4.28-6.974-2.814-10.628"/><path d="M20.065 25.85c-5.959-6.546 10.827-9.227 9.847-18.345-.018-.165-.298-2.334-.291-2.632M29.434 29.961c-1.84.223-3.679.341-5.518.074m5.888 1.445c-1.013 1.266-3.027 1.632-5 2.036"/></g><path d="M32.781 35.148l1.605-1.23v-1.873c-.81.452-1.187.896-1.498 1.337-.107.66-.23 1.337-.107 1.766z" fill="#fdd3e3" fill-opacity=".992" stroke="#fdd3e3" stroke-width=".778" stroke-opacity=".992"/><path d="M38.247 25.48c-4.912-.165-12.075-6.416-13.775-3.11" fill="none" stroke="red" stroke-width=".599"/><path d="M22.171 21.415L20.17 20.16m6.03-1.298c-.71-.919-1.234-1.686-2.358-1.678m7.192-1.501c-.548-1.411-1.973-1.53-3.61-1.655m6.472-2.896c-.594-2.594-2.425-2.386-4.2-2.183" fill="none" stroke="#fdd3e3" stroke-width=".778" stroke-opacity=".992"/></g></svg>

<svg xmlns="http://www.w3.org/2000/svg" width="52.157" height="52.157"><g opacity=".99"><path d="M26.078 48.76l13.673-4.484 6.418-40.907H5.988l6.419 40.907z" opacity=".99" fill="#fcc8dc" fill-opacity=".992" stroke="#000" stroke-width="1.04769"/><g stroke-width=".8" fill="none" stroke="#fff"><path d="M25.268 36.971c.368-1.554-.946-3.209-2.92-3.732 1.42-.95 1.892-1.896 1.892-1.896-.636-.02-2.264-.401-2.844-1.37.27-.088 1.662-.552 1.87-1.41" stroke-width=".577686"/><path d="M22.065 28.406c-5.457 1.644-8.878-.825-10.554-4.074M20.25 26.74c-5.88-.206-4.28-6.974-2.814-10.628M17.066 28.776c-2.435-1.324-4.47-3.153-3.592-8.665M20.732 16.667c1.286-.583 1.948-5.511 1.036-5.221M16.88 25.258c-2.055-8.02 11.054-10.188 9.147-18.145M20.065 25.85c-6.067-6.665 11.443-9.323 9.776-18.848M31.989 32.109c-1.456 1.965-2.746 4.13-5.147 4.962M29.434 29.961c-1.84.223-3.679.341-5.518.074M29.804 31.48c-1.013 1.266-3.027 1.632-5 2.036" stroke-width=".5776880000000001"/></g><path d="M38.247 25.48c-4.912-.165-12.075-6.416-13.775-3.11" fill="none" stroke="red" stroke-width=".5776880000000001"/><path d="M27.059 27.745c3.646-.937 4.638-7.105 7.698-9.636.532.266.598.861.576 2.095l2.043 1.1-3.3.419 2.095 1.152-2.775.47 1.152 1.624-2.252-.366.105 2.356-.995.524v1.571l.523.786.838-.105-.052-.733 1.204-.105.105-.89.943.314.733-.21-.157-1.78 1.518.052.053-2.88c.342.28.83.559 1.728.838.278-1.641.206-3.125.21-4.766l2.46 3.457c-.194.474-.726.432-1.099 1.518.033.759.062 1.515.367 2.41-1.849.912-3.454 2.555-5.028 4.294l-.052 3.613c-.659 1.804-1.116 2.78-1.683 3.709-.042-1.342-.114-2.453-.456-3.21-1.044 1.11-.02 4.54-3.726 6.466.93-2.078 2.665-4.256 1.518-6.075-4.125 5.114-8.418 9.025-13.51 7.227 5.025-.412 8.741-3.319 7.873-6.461-3.158 3.528-7.03 2.71-8.272 2.105 3.919-.405 5.521-1.907 4.692-4.128-4.437 1.275-7.834 1.081-9.897-.995 2.485.272 6.1 1.043 6.196-.412-17.394-7.675 2.55-19.04 2.863-20.535 1.085-2.682.47-3.7.42-5.499 5.69-2.75 9.614-2.285 12.568-.052.57 8.029-6.557 10.848-10.123 12.527-3.907 1.839-6.314 8.962-.584 9.042.486-1.026.764-2.575.495-4.55 1.196 3.518 3.222 4.545 5.813 3.876" fill="red" stroke="red" stroke-width=".53869406"/><g stroke-width=".8"><path d="M25.268 36.971c.368-1.554-.946-3.209-2.92-3.732 1.42-.95 1.892-1.896 1.892-1.896-.636-.02-2.264-.401-2.844-1.37.27-.088 1.662-.552 1.87-1.41" fill="none" stroke="#fdc8dc" stroke-width=".7779504800000001" stroke-opacity=".976"/><g stroke="#fff"><path d="M22.065 28.406c-5.457 1.644-8.878-.825-10.554-4.074M20.25 26.74c-5.88-.206-4.28-6.974-2.814-10.628" fill="none" stroke="#fdc8dc" stroke-width=".77771247" stroke-opacity=".976"/><path d="M20.065 25.85c-5.959-6.546 10.827-9.227 9.847-18.345-.018-.165-.298-2.334-.291-2.632" fill="none" stroke="#fdc8dc" stroke-width=".77771247" stroke-opacity=".976"/></g><path d="M29.434 29.961c-1.84.223-3.679.341-5.518.074M29.804 31.48c-1.013 1.266-3.027 1.632-5 2.036" fill="none" stroke="#fdc8dc" stroke-width=".77771247" stroke-opacity=".976"/></g><path d="M32.781 35.148l1.605-1.23v-1.873c-.81.452-1.187.896-1.498 1.337-.107.66-.23 1.337-.107 1.766z" fill="#fbc6da" fill-opacity=".984" stroke="#fbc6da" stroke-width=".77771247" stroke-opacity=".984"/><path d="M38.247 25.48c-4.912-.165-12.075-6.416-13.775-3.11" fill="none" stroke="red" stroke-width=".59862919"/><path d="M22.171 21.415L20.17 20.16M26.2 18.862c-.71-.919-1.234-1.686-2.358-1.678M31.034 15.683c-.548-1.411-1.973-1.53-3.61-1.655M33.896 11.132c-.594-2.594-2.425-2.386-4.2-2.183" fill="none" stroke="#fdc8dc" stroke-width=".7779963400000001" stroke-opacity=".976"/></g></svg>
